X: 5
T: The Maid of Mullagh
M: 4/4
L: 1/8
K: Dmaj
AG | FGAF DFAF | GBAF GEED | FGAF DFAe | (3fef ec dBAG |
FGAF DFAF | GBAF EDCE | FGAF DFAg | (3fgf ec defg |]
a2 fa dafa | g2 eg =cgeg | a2 fa dafa | gecd eddf |
a2 fa dafa | g2 eg =cgeg | (3agf ge fdec | dABG FD D2 |]

